lib/assets/picture/default.svg

<svg width="48" height="48" viewBox="0 0 48 48" fill="none" xmlns="http://www.w3.org/2000/svg">
<path fill-rule="evenodd" clip-rule="evenodd" d="M6.34315 6.34315C4 8.68629 4 12.4575 4 20V28C4 35.5425 4 39.3137 6.34315 41.6569C8.68629 44 12.4575 44 20 44H28C35.5425 44 39.3137 44 41.6569 41.6569C44 39.3137 44 35.5425 44 28V20C44 12.4575 44 8.68629 41.6569 6.34315C39.3137 4 35.5425 4 28 4H20C12.4575 4 8.68629 4 6.34315 6.34315ZM6.34142 33.6586L14.9112 25.0888L14.9112 25.0888C15.8576 24.1424 16.3308 23.6692 16.8518 23.7696C17.3728 23.8699 17.6364 24.485 18.1637 25.7152L21.8363 34.2848C22.3636 35.515 22.6272 36.1301 23.1482 36.2304C23.6692 36.3308 24.1424 35.8576 25.0888 34.9112L25.0888 34.9112L29.6665 30.3335C30.2982 29.7018 30.6141 29.3859 31.011 29.3743C31.4079 29.3626 31.7418 29.6594 32.4095 30.2529L32.4095 30.2529L39.4317 36.4948L39.4317 36.4949C39.7127 36.7446 39.8531 36.8694 40.0248 36.9347C40.1965 37 40.3845 37 40.7604 37H41.8C41.8943 37 41.9414 37 41.9707 36.9707C42 36.9414 42 36.8943 42 36.8V7.2C42 7.10572 42 7.05858 41.9707 7.02929C41.9414 7 41.8943 7 41.8 7H6.2C6.10572 7 6.05858 7 6.02929 7.02929C6 7.05858 6 7.10572 6 7.2V33.5172C6 33.7227 6 33.8254 6.06173 33.851C6.12346 33.8765 6.19612 33.8039 6.34142 33.6586Z" fill="#EBEBEB"/>
<path d="M6 6H42V42H6V6Z" stroke="#EBEBEB" stroke-width="4"/>
<circle cx="30" cy="18" r="4" fill="#EBEBEB"/>
</svg>

<svg width="48" height="48" viewBox="0 0 48 48" fill="none" xmlns="http://www.w3.org/2000/svg"><path fill-rule="evenodd" clip-rule="evenodd" d="M6.343 6.343C4 8.686 4 12.457 4 20v8c0 7.542 0 11.314 2.343 13.657S12.457 44 20 44h8c7.542 0 11.314 0 13.657-2.343S44 35.543 44 28v-8c0-7.543 0-11.314-2.343-13.657S35.543 4 28 4h-8C12.457 4 8.686 4 6.343 6.343ZM6.341 33.66l8.57-8.57c.947-.947 1.42-1.42 1.94-1.32.522.1.785.716 1.313 1.946l3.672 8.57c.528 1.23.791 1.845 1.312 1.945.521.1.994-.372 1.94-1.319l4.578-4.578c.632-.631.948-.947 1.345-.959.397-.011.73.285 1.399.879l7.022 6.242c.28.25.421.374.593.44.172.065.36.065.735.065h1.04c.094 0 .141 0 .17-.03.03-.029.03-.076.03-.17V7.2c0-.094 0-.141-.03-.17C41.942 7 41.895 7 41.8 7H6.2c-.094 0-.141 0-.17.03C6 7.058 6 7.105 6 7.2v26.317c0 .206 0 .308.062.334.061.026.134-.047.28-.192Z" fill="#EBEBEB"/><path d="M6 6h36v36H6V6Z" stroke="#EBEBEB" stroke-width="4"/><circle cx="30" cy="18" r="4" fill="#EBEBEB"/></svg>
